svg/malaria_pv_microscope_negative.svg

<svg width="48" height="48" viewBox="0 0 48 48" fill="none" xmlns="http://www.w3.org/2000/svg">
<path fill-rule="evenodd" clip-rule="evenodd" d="M22.6886 4.04688C22.6223 4.05174 22.556 4.05694 22.4896 4.06248C22.5566 4.05748 22.6226 4.05117 22.6886 4.04688ZM20.6447 4.28517C20.6127 4.29093 20.5807 4.29676 20.5487 4.30267C20.5807 4.29717 20.6127 4.29057 20.6447 4.28517ZM23.9996 4.51757C13.2398 4.51757 4.51787 13.2399 4.51787 23.9993C4.51747 34.7592 13.2398 43.4811 23.9996 43.4811C34.7595 43.4811 43.4814 34.7592 43.4814 23.9993C43.4814 13.2395 34.7595 4.51757 23.9996 4.51757ZM19.1517 4.61517C18.9112 4.67259 18.6719 4.73447 18.4337 4.80077C18.6707 4.73217 18.9117 4.67517 19.1517 4.61517ZM17.2167 5.20506C16.9946 5.2819 16.7739 5.36264 16.5547 5.44726C16.7717 5.35986 16.9957 5.28486 17.2167 5.20506ZM15.4057 5.96084C15.1852 6.06233 14.9665 6.1678 14.7497 6.27725C14.9647 6.16495 15.1867 6.06555 15.4057 5.96084ZM13.7188 6.86904C13.4846 7.00433 13.2532 7.14436 13.0248 7.28903C13.2508 7.14064 13.4868 7.00844 13.7188 6.86904ZM35.2555 7.47063C35.4005 7.56933 35.5335 7.68273 35.6755 7.78513C35.5369 7.67846 35.3969 7.57362 35.2555 7.47063ZM12.0718 7.97453C11.8625 8.12416 11.6561 8.27782 11.4528 8.43542C11.6528 8.27402 11.8658 8.12832 12.0718 7.97453ZM36.8115 8.64832C36.9995 8.80512 37.1735 8.9771 37.3545 9.1405C37.1765 8.97313 36.9955 8.80905 36.8115 8.64832ZM29.2966 8.87881C31.2585 8.79401 33.7295 11.3259 35.1495 14.8768C36.7605 18.9068 36.4605 22.8157 34.4785 23.6067C32.4965 24.3997 29.5836 21.7768 27.9726 17.7478C26.3616 13.7179 26.6616 9.8093 28.6446 9.01751C28.8486 8.93541 29.0666 8.88901 29.2966 8.87881ZM10.5448 9.23231C10.3513 9.40182 10.1612 9.57505 9.97439 9.75189C10.1578 9.5714 10.3548 9.40561 10.5448 9.23231ZM19.0207 9.62101C19.6487 9.59191 20.1827 9.74139 20.5897 10.0609C22.2716 11.3749 21.4677 15.2118 18.7947 18.6308C16.1207 22.0508 12.5888 23.7557 10.9078 22.4387C9.22741 21.1238 10.0318 17.2868 12.7048 13.8689C14.6497 11.3819 17.1367 9.7092 19.0207 9.62101ZM38.2474 9.97449C38.4274 10.1579 38.5934 10.3549 38.7674 10.5449C38.5978 10.3514 38.4244 10.1613 38.2474 9.97449ZM9.14081 10.6449C8.97344 10.8229 8.80934 11.0039 8.64861 11.1879C8.80541 10.9999 8.97741 10.8259 9.14081 10.6449ZM39.5634 11.4529C39.7254 11.6529 39.8714 11.8659 40.0244 12.0719C39.8748 11.8626 39.7211 11.6562 39.5634 11.4529ZM7.78483 12.3239C7.67816 12.4625 7.57332 12.6025 7.47033 12.7439C7.56903 12.5989 7.68243 12.4659 7.78483 12.3239ZM40.7104 13.0249C40.8584 13.2509 40.9904 13.4869 41.1304 13.7189C40.9951 13.4847 40.8551 13.2533 40.7104 13.0249ZM41.7224 14.7498C41.8344 14.9648 41.9334 15.1868 42.0384 15.4058C41.9371 15.1853 41.8317 14.9666 41.7224 14.7498ZM13.9858 15.6348C13.5828 15.6548 13.1898 15.7698 12.8398 15.9708C11.6118 16.6748 11.1878 18.2408 11.8928 19.4688C12.5968 20.6958 14.1627 21.1198 15.3907 20.4158C16.6177 19.7118 17.0417 18.1458 16.3377 16.9178C15.8577 16.0818 14.9487 15.5858 13.9858 15.6348ZM32.6015 16.0818C32.5415 16.0808 32.4815 16.0828 32.4215 16.0858C31.0075 16.1598 29.9216 17.3658 29.9956 18.7788C30.0706 20.1918 31.2755 21.2768 32.6885 21.2028C34.1025 21.1298 35.1885 19.9228 35.1145 18.5098C35.0445 17.1658 33.9465 16.1058 32.6015 16.0818ZM14.0737 16.1618C14.8167 16.1478 15.5077 16.5388 15.8767 17.1838C16.4337 18.1568 16.0967 19.3968 15.1247 19.9548C14.1517 20.5118 12.9118 20.1748 12.3538 19.2028C11.7958 18.2308 12.1318 16.9908 13.1038 16.4318C13.3988 16.2618 13.7328 16.1688 14.0737 16.1618ZM42.5524 16.5548C42.6394 16.7718 42.7144 16.9958 42.7944 17.2168C42.7176 16.9947 42.6369 16.774 42.5524 16.5548ZM32.6515 16.6148C33.6945 16.6648 34.5295 17.4968 34.5835 18.5388C34.6415 19.6588 33.7815 20.6138 32.6615 20.6738C31.5415 20.7318 30.5865 19.8718 30.5265 18.7518C30.4685 17.6318 31.3285 16.6768 32.4485 16.6168C32.5165 16.6128 32.5845 16.6128 32.6515 16.6148ZM43.1984 18.4338C43.2674 18.6708 43.3244 18.9118 43.3844 19.1518C43.3268 18.9113 43.2648 18.672 43.1984 18.4338ZM43.6964 20.5488L43.7144 20.6448C43.7085 20.6128 43.7025 20.5808 43.6964 20.5488ZM43.9374 22.4897C43.9414 22.5567 43.9484 22.6227 43.9524 22.6887C43.9477 22.6224 43.9427 22.5561 43.9374 22.4897ZM25.8886 25.1557C27.7096 25.1737 30.0845 26.1817 32.1925 27.8297C35.6115 30.5036 37.3165 34.0336 36.0015 35.7146C34.6875 37.3966 30.8505 36.5926 27.4316 33.9196C24.0126 31.2456 22.3076 27.7157 23.6226 26.0347C24.0776 25.4517 24.8646 25.1467 25.8886 25.1557ZM4.04688 25.3107C4.05174 25.3771 4.05694 25.4434 4.06248 25.5097C4.05748 25.4427 4.05117 25.3767 4.04688 25.3107ZM14.2967 25.8787C16.2587 25.7937 18.7297 28.3257 20.1497 31.8766C21.7607 35.9066 21.4607 39.8155 19.4787 40.6065C17.4967 41.3995 14.5837 38.7765 12.9728 34.7476C11.3618 30.7176 11.6618 26.8087 13.6448 26.0177C13.8488 25.9347 14.0667 25.8887 14.2967 25.8787ZM27.7496 26.6947C27.2596 26.6767 26.7736 26.7997 26.3516 27.0487C25.1316 27.7677 24.7276 29.3397 25.4466 30.5586C26.1666 31.7766 27.7386 32.1806 28.9566 31.4606C30.1755 30.7416 30.5805 29.1697 29.8606 27.9507C29.4166 27.2007 28.6216 26.7267 27.7496 26.6947ZM27.5856 27.2267C28.3276 27.2017 29.0236 27.5837 29.4016 28.2227C29.9715 29.1877 29.6516 30.4326 28.6876 31.0036C27.7216 31.5736 26.4766 31.2536 25.9056 30.2886C25.3346 29.3227 25.6546 28.0767 26.6206 27.5057C26.9136 27.3327 27.2456 27.2367 27.5856 27.2267ZM4.28487 27.3547C4.29063 27.3867 4.29646 27.4187 4.30237 27.4507C4.29687 27.4187 4.29027 27.3867 4.28487 27.3547ZM4.61487 28.8477C4.67229 29.0881 4.73417 29.3275 4.80047 29.5657C4.73187 29.3287 4.67487 29.0877 4.61487 28.8477ZM5.20476 30.7826C5.2816 31.0047 5.36234 31.2254 5.44696 31.4446C5.35956 31.2276 5.28456 31.0036 5.20476 30.7826ZM5.96055 32.5936C6.06203 32.8142 6.16751 33.0329 6.27695 33.2496C6.16465 33.0346 6.06525 32.8126 5.96055 32.5936ZM17.4784 33.3116C16.0624 33.3116 14.9154 34.4596 14.9154 35.8746C14.9154 37.2896 16.0624 38.4375 17.4784 38.4375C18.8934 38.4375 20.0404 37.2896 20.0404 35.8746C20.0404 34.4596 18.8934 33.3116 17.4784 33.3116ZM17.4784 33.8436C18.5994 33.8436 19.5084 34.7526 19.5094 35.8746C19.5084 36.9966 18.5994 37.9056 17.4784 37.9056C16.3564 37.9056 15.4474 36.9966 15.4464 35.8746C15.4474 34.7526 16.3564 33.8436 17.4784 33.8436ZM6.86854 34.2806C7.00382 34.5147 7.14386 34.7461 7.28853 34.9746C7.14014 34.7486 7.00794 34.5126 6.86854 34.2806ZM40.5281 35.2556C40.4301 35.4006 40.3161 35.5336 40.2141 35.6756C40.3206 35.537 40.4253 35.3969 40.5281 35.2556ZM7.97453 35.9276C8.12416 36.1369 8.27782 36.3432 8.43542 36.5466C8.27402 36.3466 8.12832 36.1336 7.97453 35.9276ZM39.3511 36.8116C39.1941 36.9996 39.0221 37.1736 38.8581 37.3546C39.0258 37.1766 39.1901 36.9956 39.3511 36.8116ZM9.23151 37.4546C9.40103 37.6479 9.57425 37.8379 9.75109 38.0246C9.5706 37.8416 9.40481 37.6446 9.23151 37.4546ZM38.0241 38.2476C37.8412 38.4275 37.6442 38.5935 37.4542 38.7675C37.6475 38.5979 37.8375 38.4245 38.0241 38.2476ZM10.6445 38.8585C10.8225 39.0262 11.0035 39.1905 11.1875 39.3515C10.9995 39.1945 10.8255 39.0225 10.6445 38.8585ZM36.5462 39.5635C36.3462 39.7255 36.1332 39.8715 35.9272 40.0245C36.1365 39.8749 36.3428 39.7212 36.5462 39.5635ZM12.3235 40.2145C12.4621 40.321 12.6021 40.4257 12.7435 40.5285C12.5985 40.4305 12.4655 40.3165 12.3235 40.2145ZM34.9742 40.7105C34.7482 40.8585 34.5122 40.9905 34.2802 41.1305C34.5143 40.9952 34.7457 40.8552 34.9742 40.7105ZM33.2492 41.7225C33.0342 41.8345 32.8122 41.9335 32.5932 42.0385C32.8138 41.9372 33.0325 41.8318 33.2492 41.7225ZM31.4442 42.5525C31.2272 42.6395 31.0032 42.7145 30.7822 42.7945C31.0043 42.7177 31.225 42.637 31.4442 42.5525ZM29.5653 43.1985C29.3283 43.2675 29.0873 43.3245 28.8473 43.3845C29.0877 43.3269 29.3271 43.2649 29.5653 43.1985ZM27.4503 43.6965L27.3543 43.7145C27.3863 43.7086 27.4183 43.7026 27.4503 43.6965ZM25.5093 43.9375C25.4423 43.9415 25.3763 43.9485 25.3103 43.9525C25.3767 43.9478 25.443 43.9428 25.5093 43.9375Z" fill="#333333"/>
</svg>

<?xml version="1.0" encoding="UTF-8" standalone="no"?>
<!-- Created with Inkscape (http://www.inkscape.org/) -->
<svg id="svg8" xmlns:rdf="http://www.w3.org/1999/02/22-rdf-syntax-ns#" xmlns="http://www.w3.org/2000/svg" xmlns:osb="http://www.openswatchbook.org/uri/2009/osb" height="48" width="48" version="1.1" xmlns:cc="http://creativecommons.org/ns#" viewBox="0 0 12.7 12.7" xmlns:dc="http://purl.org/dc/elements/1.1/">
 <title id="title4753">UIO-icon</title>
 <metadata id="metadata5">
  <rdf:RDF>
   <cc:Work rdf:about="">
    <dc:format>image/svg+xml</dc:format>
    <dc:type rdf:resource="http://purl.org/dc/dcmitype/StillImage"/>
    <dc:title>UIO-icon</dc:title>
    <dc:creator>
     <cc:Agent>
      <dc:title>Joaquín Urbano</dc:title>
     </cc:Agent>
    </dc:creator>
    <dc:rights>
     <cc:Agent>
      <dc:title>GPL</dc:title>
     </cc:Agent>
    </dc:rights>
   </cc:Work>
  </rdf:RDF>
 </metadata>
 <g id="layer1" fill="#333" transform="translate(0,-284.3)">
  <path id="path1089" d="m22.689 4.0469a20 20 0 0 0 -0.199 0.0156c0.067-0.005 0.133-0.0113 0.199-0.0156zm-2.044 0.2383a20 20 0 0 0 -0.096 0.0175c0.032-0.0055 0.064-0.0121 0.096-0.0175zm3.355 0.2324c-10.76 0-19.482 8.7224-19.482 19.482-0.0004 10.76 8.722 19.482 19.482 19.482s19.482-8.722 19.482-19.482-8.722-19.482-19.482-19.482zm-4.848 0.0976a20 20 0 0 0 -0.718 0.1856c0.237-0.0686 0.478-0.1256 0.718-0.1856zm-1.935 0.5899a20 20 0 0 0 -0.662 0.2422c0.217-0.0874 0.441-0.1624 0.662-0.2422zm-1.811 0.7558a20 20 0 0 0 -0.656 0.3164c0.215-0.1123 0.437-0.2117 0.656-0.3164zm-1.687 0.9082a20 20 0 0 0 -0.694 0.42c0.226-0.1484 0.462-0.2806 0.694-0.42zm21.537 0.6016c0.145 0.0987 0.278 0.2121 0.42 0.3145a20 20 0 0 0 -0.42 -0.3145zm-23.184 0.5039a20 20 0 0 0 -0.619 0.4609c0.2-0.1614 0.413-0.3071 0.619-0.4609zm24.74 0.6738c0.188 0.1568 0.362 0.3288 0.543 0.4922a20 20 0 0 0 -0.543 -0.4922zm-7.515 0.2305c1.962-0.0848 4.433 2.4471 5.853 5.9981 1.611 4.03 1.311 7.939-0.671 8.73-1.982 0.793-4.895-1.83-6.506-5.859-1.611-4.03-1.311-7.9386 0.672-8.7304 0.204-0.0821 0.422-0.1285 0.652-0.1387zm-18.752 0.3535a20 20 0 0 0 -0.5704 0.5196c0.1834-0.1805 0.3804-0.3463 0.5704-0.5196zm8.476 0.3887c0.628-0.0291 1.162 0.1204 1.569 0.4399 1.682 1.314 0.878 5.151-1.795 8.57-2.674 3.42-6.206 5.125-7.887 3.808-1.6804-1.315-0.876-5.152 1.797-8.57 1.945-2.487 4.432-4.1597 6.316-4.2479zm19.227 0.3535c0.18 0.1834 0.346 0.3804 0.52 0.5704a20 20 0 0 0 -0.52 -0.5704zm-29.107 0.6704a20 20 0 0 0 -0.4922 0.543c0.1568-0.188 0.3288-0.362 0.4922-0.543zm30.423 0.808c0.162 0.2 0.308 0.413 0.461 0.619a20 20 0 0 0 -0.461 -0.619zm-31.779 0.871a20 20 0 0 0 -0.3145 0.42c0.0987-0.145 0.2121-0.278 0.3145-0.42zm32.926 0.701c0.148 0.226 0.28 0.462 0.42 0.694a20 20 0 0 0 -0.42 -0.694zm1.012 1.725c0.112 0.215 0.211 0.437 0.316 0.656a20 20 0 0 0 -0.316 -0.656zm-27.737 0.885c-0.403 0.02-0.796 0.135-1.146 0.336-1.228 0.704-1.652 2.27-0.947 3.498 0.704 1.227 2.27 1.651 3.498 0.947 1.227-0.704 1.651-2.27 0.947-3.498-0.48-0.836-1.389-1.332-2.352-1.283zm18.616 0.447c-0.06-0.001-0.12 0.001-0.18 0.004-1.414 0.074-2.5 1.28-2.426 2.693 0.075 1.413 1.28 2.498 2.693 2.424 1.414-0.073 2.5-1.28 2.426-2.693-0.07-1.344-1.168-2.404-2.513-2.428zm-18.528 0.08c0.743-0.014 1.434 0.377 1.803 1.022 0.557 0.973 0.22 2.213-0.752 2.771-0.973 0.557-2.213 0.22-2.771-0.752s-0.222-2.212 0.75-2.771c0.295-0.17 0.629-0.263 0.97-0.27zm28.479 0.393c0.087 0.217 0.162 0.441 0.242 0.662a20 20 0 0 0 -0.242 -0.662zm-9.901 0.06c1.043 0.05 1.878 0.882 1.932 1.924 0.058 1.12-0.802 2.075-1.922 2.135-1.12 0.058-2.075-0.802-2.135-1.922-0.058-1.12 0.802-2.075 1.922-2.135 0.068-0.004 0.136-0.004 0.203-0.002zm10.547 1.819c0.069 0.237 0.126 0.478 0.186 0.718a20 20 0 0 0 -0.186 -0.718zm0.498 2.115l0.018 0.096a20 20 0 0 0 -0.018 -0.096zm0.241 1.941c0.004 0.067 0.011 0.133 0.015 0.199a20 20 0 0 0 -0.015 -0.199zm-18.049 2.666c1.821 0.018 4.196 1.026 6.304 2.674 3.419 2.674 5.124 6.204 3.809 7.885-1.314 1.682-5.151 0.878-8.57-1.795-3.419-2.674-5.124-6.204-3.809-7.885 0.455-0.583 1.242-0.888 2.266-0.879zm-21.842 0.155a20 20 0 0 0 0.0156 0.199c-0.005-0.067-0.0113-0.133-0.0156-0.199zm10.25 0.568c1.962-0.085 4.433 2.447 5.853 5.998 1.611 4.03 1.311 7.939-0.671 8.73-1.982 0.793-4.895-1.83-6.506-5.859-1.611-4.03-1.311-7.939 0.672-8.73 0.204-0.083 0.422-0.129 0.652-0.139zm13.453 0.816c-0.49-0.018-0.976 0.105-1.398 0.354-1.22 0.719-1.624 2.291-0.905 3.51 0.72 1.218 2.292 1.622 3.51 0.902 1.219-0.719 1.624-2.291 0.904-3.51-0.444-0.75-1.239-1.224-2.111-1.256zm-0.164 0.532c0.742-0.025 1.438 0.357 1.816 0.996 0.57 0.965 0.25 2.21-0.714 2.781-0.966 0.57-2.211 0.25-2.782-0.715-0.571-0.966-0.251-2.212 0.715-2.783 0.293-0.173 0.625-0.269 0.965-0.279zm-23.301 0.128a20 20 0 0 0 0.0175 0.096c-0.0055-0.032-0.0121-0.064-0.0175-0.096zm0.33 1.493a20 20 0 0 0 0.1856 0.718c-0.0686-0.237-0.1256-0.478-0.1856-0.718zm0.5899 1.935a20 20 0 0 0 0.2422 0.662c-0.0874-0.217-0.1624-0.441-0.2422-0.662zm0.7558 1.811a20 20 0 0 0 0.3164 0.656c-0.1123-0.215-0.2117-0.437-0.3164-0.656zm11.518 0.718c-1.416 0-2.563 1.148-2.563 2.563s1.147 2.563 2.563 2.563c1.415 0 2.562-1.148 2.562-2.563s-1.147-2.563-2.562-2.563zm0 0.532c1.121 0 2.03 0.909 2.031 2.031-0.001 1.122-0.91 2.031-2.031 2.031-1.122 0-2.031-0.909-2.032-2.031 0.001-1.122 0.91-2.031 2.032-2.031zm-10.61 0.437a20 20 0 0 0 0.42 0.694c-0.1484-0.226-0.2806-0.462-0.42-0.694zm33.66 0.975c-0.098 0.145-0.212 0.278-0.314 0.42a20 20 0 0 0 0.314 -0.42zm-32.554 0.672a20 20 0 0 0 0.4609 0.619c-0.1614-0.2-0.3071-0.413-0.4609-0.619zm31.377 0.884c-0.157 0.188-0.329 0.362-0.493 0.543a20 20 0 0 0 0.493 -0.543zm-30.12 0.643a20 20 0 0 0 0.5196 0.57c-0.1805-0.183-0.3463-0.38-0.5196-0.57zm28.793 0.793c-0.183 0.18-0.38 0.346-0.57 0.52a20 20 0 0 0 0.57 -0.52zm-27.38 0.611a20 20 0 0 0 0.543 0.493c-0.188-0.157-0.362-0.329-0.543-0.493zm25.902 0.705c-0.2 0.162-0.413 0.308-0.619 0.461a20 20 0 0 0 0.619 -0.461zm-24.223 0.651a20 20 0 0 0 0.42 0.314c-0.145-0.098-0.278-0.212-0.42-0.314zm22.651 0.496c-0.226 0.148-0.462 0.28-0.694 0.42a20 20 0 0 0 0.694 -0.42zm-1.725 1.012c-0.215 0.112-0.437 0.211-0.656 0.316a20 20 0 0 0 0.656 -0.316zm-1.805 0.83c-0.217 0.087-0.441 0.162-0.662 0.242a20 20 0 0 0 0.662 -0.242zm-1.879 0.646c-0.237 0.069-0.478 0.126-0.718 0.186a20 20 0 0 0 0.718 -0.186zm-2.115 0.498l-0.096 0.018a20 20 0 0 0 0.096 -0.018zm-1.941 0.241c-0.067 0.004-0.133 0.011-0.199 0.015a20 20 0 0 0 0.199 -0.015z" fill-rule="evenodd" transform="matrix(.26458 0 0 .26458 0 284.3)"/>
 </g>
</svg>
